X: 4
T: Camel's Hump, The
C: Denny Novek
Z: ceili
S: https://thesession.org/tunes/495#setting47975
R: reel
M: 4/4
L: 1/8
K: Cmaj
|:"E"B,E E/E/E B,E^GE|B,E^GA "Bb"_BAFD|"E"B,E E/E/E B,E^GA|"Bb"_BAFD "E"E2 ED|
"E"B,E E/E/E B,E^GE|B,E^GA "Bb"_BAFD|"E"FE E/E/E ^GE E/E/E|"Bb"_BAFD "E"E4:|
|:"E"eB B/B/B ^gB B/B/B|"Am"c=BeA fAeA|"E"eB B/B/B ^gB B/B/B|"Am"afef e2 fe|
"E"eB B/B/B ^gB B/B/B|"Am"c=BeA fAeA|"E"B^G G/G/G "F"AF F/F/F|"Bdim"BA^GF "E"E4:|

%-------------------- TUNE SEPARATOR --------------------%

